X: 144
T: Ang naga erna Nang rag ar-na                            (Name)
L: 1/8
M: 2/4
K: C
A2G2 [I:setbarnb 1]| 
d2c A | 
A GE2 | 
A2d2 | 
EA2E | 
C4 | 
e2c2 | 
A> c A G | 
ED2E | 
AG2E | 
DE2C | 
A,4 |]

@@@ Tune index: 8812
